static/assets/images/icons/radyal-mono.svg

<svg width="257" height="256" viewBox="0 0 257 256" fill="none" xmlns="http://www.w3.org/2000/svg">
<path d="M225.3 128.026C225.3 153.749 215.082 178.418 196.893 196.607C178.705 214.796 154.035 225.014 128.312 225.014C102.589 225.014 77.9202 214.796 59.7314 196.607C41.5426 178.418 31.3242 153.749 31.3242 128.026C31.3242 102.303 41.5426 77.634 59.7314 59.4453C77.9202 41.2565 102.589 31.0381 128.312 31.0381C154.035 31.0381 178.705 41.2565 196.893 59.4453C215.082 77.634 225.3 102.303 225.3 128.026ZM97.6798 43.5284C124.047 37.1811 151.419 43.2063 172.507 60.0132C199.46 81.4941 211.251 116.86 202.441 150.253C190.355 196.027 144.133 223.31 98.2846 212.669C97.3603 212.455 97.3446 212.506 98.2375 212.823C135.225 225.992 176.977 213.4 200.387 181.86C228.348 144.189 223.066 91.502 187.559 60.3784C162.688 38.5794 128.874 32.4756 97.6483 43.4262C97.6169 43.4367 97.6064 43.4577 97.6169 43.4891V43.493C97.6274 43.5244 97.6483 43.5362 97.6798 43.5284ZM90.9594 203.141C91.0929 203.232 91.1937 203.29 91.2618 203.313C132.409 217.885 176.82 197.402 192.806 157.147C201.506 135.234 199.731 109.931 188.336 89.3614C169.059 54.5654 127.641 39.4238 90.3898 53.0924C90.3715 53.1003 90.361 53.0938 90.3584 53.0728C90.3165 52.7324 90.3191 52.7468 90.3663 53.116C90.3673 53.1216 90.3694 53.1269 90.3724 53.1316C90.3754 53.1363 90.3793 53.1403 90.3838 53.1433C90.3882 53.1463 90.3932 53.1482 90.3983 53.1489C90.4034 53.1496 90.4086 53.1491 90.4134 53.1474C103.433 50.1021 116.165 50.2985 128.611 53.7366C181.49 68.34 202.594 131.573 169.267 175.1C162.574 183.84 153.407 191.518 143.391 196.573C126.716 204.987 109.077 207.119 90.4723 202.972C90.4701 202.972 90.468 202.973 90.4663 202.974C90.4645 202.975 90.4631 202.977 90.4623 202.979C90.4615 202.981 90.4612 202.983 90.4616 202.986C90.462 202.988 90.463 202.99 90.4645 202.991C90.5064 203.023 90.5692 203.04 90.653 203.042C90.763 203.045 90.8651 203.078 90.9594 203.141ZM78.9051 191.53C108.544 205.191 143.882 196.664 163.827 170.642C183.812 144.566 183.097 107.802 161.549 82.6488C141.239 58.937 107.743 51.2817 79.1368 64.4201C79.0975 64.4384 79.0858 64.4672 79.1015 64.5065C79.1172 64.5484 79.146 64.5615 79.1879 64.5458C81.1334 63.8519 83.1156 63.2732 85.1345 62.8097C108.234 57.5072 132.378 64.4594 148.745 81.5176C171.51 105.253 173.929 142.072 154.004 168.38C137.354 190.371 109.809 199.562 83.1196 192.752C81.8587 192.43 80.3269 191.888 78.9365 191.448C78.5044 191.312 78.494 191.339 78.9051 191.53ZM68.7479 166.817C46.6778 142.826 48.787 105.261 74.0779 84.2356C87.5422 73.0415 105.15 68.6542 122.389 72.2835C122.421 72.2913 122.442 72.2795 122.452 72.2481V72.2442C122.46 72.2128 122.45 72.1918 122.421 72.1813C99.0113 62.9982 72.3536 69.4908 55.7627 88.1005C41.666 103.914 36.9056 126.227 43.4099 146.408C54.0659 179.464 90.1188 196.255 122.444 183.891C122.481 183.878 122.494 183.854 122.484 183.82L122.48 183.816C122.469 183.779 122.447 183.765 122.413 183.773C102.664 187.87 82.2319 181.479 68.7479 166.817ZM129.636 174.166C129.667 174.166 129.699 174.166 129.73 174.166C129.738 174.166 129.741 174.16 129.738 174.15C129.738 174.147 129.738 174.145 129.738 174.142C129.738 174.132 129.733 174.126 129.722 174.126C98.2414 180.112 70.0637 154.307 73.8461 122.374C77.0355 95.4887 103.033 76.3644 129.628 81.9261C129.639 81.9287 129.644 81.9235 129.644 81.9104C129.644 81.8947 129.644 81.8777 129.644 81.8593C129.644 81.8567 129.629 81.8489 129.601 81.8358C120.658 78.1934 111.547 77.1513 102.267 78.7093C72.7149 83.674 53.9285 113.627 62.6559 142.496C70.6804 169.032 98.4732 183.635 124.982 175.89C126.545 175.434 128.068 174.866 129.55 174.185C129.578 174.172 129.607 174.166 129.636 174.166ZM136.537 164.66C136.603 164.653 136.646 164.628 136.667 164.586C136.693 164.533 136.677 164.512 136.62 164.523C114.51 168.176 94.3726 151.636 93.5242 129.354C92.6483 106.4 113.257 87.7942 135.971 91.4706C136.877 91.6172 136.906 91.5151 136.058 91.1642C117.456 83.4933 96.0969 90.4336 85.9083 107.979C75.8571 125.3 80.2719 147.421 96.038 159.649C107.456 168.502 123.022 170.56 136.4 164.696C136.434 164.683 136.479 164.671 136.537 164.66ZM160.504 128.026C160.504 124.088 159.728 120.187 158.221 116.549C156.714 112.91 154.505 109.603 151.72 106.818C148.935 104.033 145.628 101.824 141.989 100.317C138.351 98.8096 134.451 98.0339 130.512 98.0339C122.557 98.0339 114.929 101.194 109.304 106.818C103.679 112.443 100.52 120.072 100.52 128.026C100.52 135.981 103.679 143.609 109.304 149.234C114.929 154.859 122.557 158.019 130.512 158.019C134.451 158.019 138.351 157.243 141.989 155.736C145.628 154.228 148.935 152.019 151.72 149.234C154.505 146.449 156.714 143.143 158.221 139.504C159.728 135.865 160.504 131.965 160.504 128.026Z" fill="black"/>
</svg>

<svg xmlns="http://www.w3.org/2000/svg" fill="none" viewBox="0 0 257 256"><path fill="#000" d="M225.3 128.026a96.987 96.987 0 1 1-193.975.001 96.987 96.987 0 0 1 193.975-.001M97.68 43.528c26.367-6.347 53.739-.322 74.827 16.485 26.953 21.481 38.744 56.847 29.934 90.24-12.086 45.774-58.308 73.057-104.156 62.416q-1.387-.321-.047.154c36.987 13.169 78.739.577 102.149-30.963 27.961-37.671 22.679-90.358-12.828-121.482-24.871-21.799-58.685-27.902-89.91-16.952q-.048.016-.032.063v.004q.015.047.063.035m-6.72 159.613q.2.137.302.172c41.147 14.572 85.558-5.911 101.544-46.166 8.7-21.913 6.925-47.216-4.47-67.786-19.277-34.796-60.695-49.937-97.946-36.269q-.028.013-.032-.02-.062-.51.008.044.001.008.006.016l.012.011q.007.005.014.006.008 0 .015-.002 19.53-4.568 38.198.59c52.879 14.603 73.983 77.836 40.656 121.363-6.693 8.74-15.86 16.418-25.876 21.473q-25.012 12.62-52.919 6.399l-.006.002-.004.005v.007l.002.005a.32.32 0 0 0 .189.051.57.57 0 0 1 .306.099M78.904 191.53c29.639 13.661 64.977 5.134 84.922-20.888 19.985-26.076 19.27-62.84-2.278-87.993-20.31-23.712-53.806-31.367-82.412-18.229q-.06.027-.035.087.023.061.086.039a53 53 0 0 1 5.947-1.736c23.099-5.303 47.243 1.65 63.61 18.708 22.765 23.735 25.184 60.554 5.259 86.862-16.65 21.991-44.195 31.182-70.884 24.372-1.261-.322-2.793-.864-4.184-1.304q-.648-.204-.03.082m-10.157-24.713c-22.07-23.991-19.961-61.556 5.33-82.581 13.464-11.195 31.072-15.582 48.311-11.952q.048.01.063-.036v-.004q.012-.047-.031-.063c-23.41-9.183-50.067-2.69-66.658 15.92-14.097 15.813-18.857 38.126-12.353 58.307 10.656 33.056 46.709 49.847 79.034 37.483q.055-.02.04-.071l-.004-.004q-.016-.055-.067-.043c-19.749 4.097-40.181-2.294-53.665-16.956m60.888 7.349h.094q.012 0 .008-.016v-.008q0-.015-.016-.016c-31.48 5.986-59.658-19.819-55.876-51.752 3.19-26.885 29.187-46.01 55.782-40.448q.016.005.016-.016v-.05q0-.004-.043-.024-13.414-5.464-27.334-3.127c-29.552 4.965-48.338 34.918-39.611 63.787 8.024 26.536 35.817 41.139 62.326 33.394a33 33 0 0 0 4.568-1.705.2.2 0 0 1 .086-.019m6.901-9.506q.099-.01.13-.074.039-.08-.047-.063c-22.11 3.653-42.247-12.887-43.096-35.169-.876-22.954 19.733-41.56 42.447-37.883q1.359.22.087-.307c-18.602-7.67-39.961-.73-50.15 16.815-10.05 17.321-5.636 39.442 10.13 51.67 11.418 8.853 26.984 10.911 40.362 5.047a1 1 0 0 1 .137-.036m23.967-36.634a29.994 29.994 0 0 0-51.2-21.208 29.992 29.992 0 1 0 51.2 21.208"/></svg>
